X:63
T: Maedchen als Stallknecht
N: Q1100J
O: Mitteleuropa, Deutschland (BRD) , Schleswig
N: Melodievariante zu Q0100, anderes Lied.
R: Ansinge- , Dreikoenigs - Lied
M: 3/4
L: 1/8
K: G
D2 | G2G2F2 | G4G2 | G2B2A2 | G4
AB | c3Adc | B3AG2 | A3GF2 | G4
AB | c3Adc | B3AG2 | A3GF2 | G4

@@@ Tune index: 1356
